-----BEGIN PGP PRIVATE KEY BLOCK-----

lQcXBGqEY1cBEACoTzED1SjaP37RBfTJiFJLOhf1Li23xvXpmp8Zw+4b/Zj4YArL
BfJdYRe8B+omEpa2B3rLleWyoNu1D6b5urjSVXZ1h8zEx27nD6wUqc/l1u0KFcO7
F5QnKxtv33CSID3FxK0fUvsxC2jvz67DORkWUrwpIvgpx4QwRnO4M9gzEsY/sWfz
sb97EdO3OiqPdJq4TtX5rBVLEHGBo67hV5vtc+NfaodhlACaYvFMrlxqVaH2zQ27
Mq8dUKWm5sA8CfDKD05HOIroE8xtjfVT5IvUa+xe2fJNUg4WqrF610kcKuoY64hd
orm+LNn2IB0M73dr7OqA3doxU2zJ8X7bbeGZtGToVQ8TLQDcUAgNKl+QSA+VqgCB
WMnalF28xnt/mgvwFvUl00bTLlB2+4hDHXJhuM0zo4lDh712QQeezROa4xM0sEK9
eXt6qypkCtedNGOoQMas5v+sX8igtWnICDOqCuEzSKeDGADJSMD7ohjalWr1S9Sd
4icciYBiwRgS1yfYAZXZWdksIXuYoEOpXjB5ZCfQkiPge04dqsv9DZpajdyYlFEz
2wL9KyjoKP0vbv911uJwhKOtlQ020MnjkZ4M4vPcuHS2pnPIW6kLDE9TaawXBvi2
FPnv0MgkQr62HEtc4OaapFhvup1vq8TgntLptGoYlCP9jOEkduT5cAFoZQARAQAB
AA/3c2HWuEnpN7VPuvvaVE6gG/I3el2t+c7rxrm5WHB5S7cOpzcwLv5kqJ9nJgBH
BNK5fxChne+lCFA+TmHslkbrbUYpb2kpd71AyiZ0UbYYT/iHh+JjzF7dsfxbUtZa
1dJEhs/N3yuECJtJ1R0LMcpy6FrPo2PVvM6KUI37xsvD6z9zqTZ1jRrNqhEOkw3N
H4tQhgmFpyPRdSRQrA8KVHE69A3+Ues15C8SOsSZp3fg4wTRg+APCcY1RmODLGgE
YSRvbhYQE8Mvduobuv8Wr+x976IM6PmAooEeJ2vdP9lWxXimA290jLyBmV4mDhT1
1WhU9if0m2N7sVT/v3FPBh7OCPSHjk9dsKmFspZg3l+8zyfvPyJeigfQSIgqa3T+
7wX7AUsUUenjgC/YBlcn7jjHpHgEY7djlybSG/FbhvBeC9UJmCdnaHBq5Rg3FNJ3
2YQnUf98B/bGyrnwAL2WsjWF8kEtrjXQAs9EBN1xIodhxbXWxtro6adU5/oVQLWk
YZTCjsvmhcCxpAhaW/KeMm06bvgOh/JbSouzxy8FpbrgkF8CJmLWnbv1a2eOI3dV
ZYYagqtVNvD3t/i1F7aYWbV2YAEd+00/U1yxOBclEv0qSllpGVQO1pKZQdgJFxxC
Zz7iJ+6Yog6SD8p8QvsbFvd/iMSO+7DgnAWq1aEJhBH7EQgAz4vBDRZgCTq6nfSg
ST6SIeMcSm4So/eDXR7Evv5nKkama5qhiQM0RxeYflA4FLb0nSM7zVlF0+JaL8Zh
p3hmqjOYudrzvmhTM6LG2dpFIJLrf9qmhyxgzavfDuM0AkcZFRtjgKIhmpKVPLYm
dt7ScMrR+VomYeDXCz+zWsn49YKBO1II1vi9AodYZ0uguQYgoxTnBoeeDV5lxpwc
murTgdj+/EBDJyViOJUrertjZ66EKDThQqhSg4URfC8BsqmgibLVT0eGQTN2PZHq
aVt/o/tN7XEK1nzqbAq3jrqfoUN8O0cmUJWQEY2pFeK/CV1VEBRQHsI8S73v2+GA
HgrF/QgAz5pp4rTe2/0Jd54QnSUaBP9llKUkdZVY5lzxSUC4IpXWw0x+dy3dhEIK
tdgah1TJX0KbmT7cF+fbgCnxl4m4q/zj43Hol5doXGIpK8/fwh++uHRes0BS3Cu9
A7+PNnhfsE2QfaNTdEZW3WvV8NrHGMswKtJTq63ATWcBY4qBH28qM7o7gF9+1gdf
JU9YFCKHJQIjKJVZLn4ylnBONh061TUqKH5WtHxgzLAeYbdr9oqDJz+ZEZRI7HFx
TE7wA7HuOHHqWvwjG4+zb/m2r7tCnI3aQWpAkbnODA/vxb1SR47zJllXqMwuobMS
fIyx4174LJZUIPs1XehWc9DwC/OEiQf/XdInqsedczYeXpusECi19kbai9R+JHo8
Km24PZOgIV+iQaUE4rKk9ugyziRH2YITtqHrBEyvlAKf4YUR5exa5VXSmMw0cTcM
TSETeAFm1RHgUmAQgu7kmrrIg1BKWLEtzkVxzLiZ5qNaFi9JmLeoZqtYk1wTeGJ5
TSQWcEMokYXKAEIAWlHsovVRU6ELvoYYgVdMF0xQddhRcWTbv6l5qD10ed59txHR
5h2lA2dzilqrgORV+buJVojyX/QVjl8PwWegWpwzOPC9OyQV02wlctmah8d9tluL
2DN1jcdWdzsKelPGPILkXZ1lpHSMcFGklLeyHaHjylyQXeF5JiDLPnIItC9IYXJv
bGQgV2Fzc2VybWFuIDxoYXJvbGQud2Fzc2VybWFuQGdvZm90b24uY29tPokCTgQT
AQoAOBYhBOpzi1KkFu92GXYsKrNdqrXiJq48BQJqhGNXAhsDBQsJCAcCBhUKCQgL
AgQWAgMBAh4BAheAAAoJELNdqrXiJq48BjUP/35K0LYgJPuf6ehQTBjCejdJgMOg
hKMcihvNAyXcP/AZBmB0AkhqQfNCPoh3/gKf83F9lDbZT0e80Ec8o5ZoclCQQnyz
SJDMnWy88WKXNfSwnac7FRgTWQoWKWY2VlhAlFr0XpZCCAX9MHO9ENq5Vkr6F4Lf
OVV503OltMyNG0iReNybA7a8ACD2S5czldK9xVHOWOxgekx1jBQ+zOwp3Jye8m6r
nh8kAlyrBm4HlvnxXVfgufFRGAI9KnrLvPXKvbcFq2Jd2Za8Ol9pIl6svaEUiBa6
8sRA7QXYaFD4BFWG7WQ8TGTJPjQK391OgEBz5kD3tELqDD96ZjQYP8Dj4ZM0IukB
NjXnw46e7eWrwqaZARhH1uitE6lFsyVbJYjFldWsxpZ3srRVqTqlHTMqp0F5ki5O
WH+u9OhzHMI0ZKVKRMwtEkJwtw3HDSyy79reTlq/8CvhW72qN3BwYlWGlpHiLYn8
cN58AR/WdQuI2G1ZtG4y22y+1iOte2fzQ6DrBy93oCU2KCjAXpnmu8nIbDSjygJP
ZUNV6Euk5rV8zNiI9wvuATJ3CpDLySaOqh1xLPPbAkFalCKHs9SRPZhvtxUz2M0y
xQZz85QVwh//WM0jhJmB8tppU9EN0fyJBkbw99BLoXbydoK23gRUz/++rcl/Zt1H
6vAOXegTy1ofU7SynQcYBGqEY1cBEADYGeXg5jvDmq2oZ6xPbQxCk09UXMnVaPZ6
3z70ycysXDYkpoJTNVjdoC/M9+x4NXfKzE7erDaKUwt7ynn1CkIyUBHhfbPRTe8R
OFPuMu9Kpj9hcxp7UCtPG8hY2glNG/3lFrcRqWp7U0PGk56ahTKPfxcunPszNGI7
9FFG09Rf3HDxNd12MHcDgnUllMOV8zjO4/1KkF612sFC+C4VUi3RTcCeMVXHfUil
kq8vHdkn6YGQ21DsP+UYk8S0fZnA7b6LUhK68qvKgsEug+VJ48+1LKH+pe3253YF
cBfAKRajTQ34rBtNcY2PUj0hns9CasXCWzizFzX/zrCwHlj/ElqWvv3SG+JCrHES
TzKj6ScfJw+R7ZyzITJu11EdVjU8ZN5Xd+P06glOdkx0n6JjLsx5drawC4Ia6iV1
fLmElydhAxpS95j2NHvDfNkIV9bPLiGIQuEghr6Drcf1ujx6JCVy2HR+cLWsjh0R
xei9scACMSR/aq4I424DTwYy8PslWNfGK0cEzxwu+r1WHG0hdgil4r7yCWLfSMvr
7pTkvPnFJeA9lrRAABjDxosqT/Ca086J1cGTA79QThdHkOO51PxHbom+SALzDm+A
kmeCOVwJ+0+OFXXEGIjAhMD4Ze7cFeMsPPdcvtRFVU6iqmpuTfHyil0wKF05GnwC
rKo0r9BWmwARAQABAA//UoEIt+WOua5LULlMGwLaJGzTY7UNRdIOEHk9Mv38i22l
Kjb8GMKMTAkFVu7stDRNqPp5vh/nrsXn43o5N6mT/lt9iCaSyX1EocFsocuGemyg
VBc67At+jXRg+DM+S9c9BwK2ICMbSTxP6vefHQVveUOfWSeL7E+6lYNAqJblRTgH
UsAq7h2wwoFDMnbqeUxjyvFWWepmjm2XTXctOOyoG3ng6USSqFgXrUckZQuzRb6r
vd9NtPTsBYcdGX++fN8H2W8bQY62sdlb4eNvXdeBDH2e13cINDTIZWkXWEEXqH8Z
r3Ad+GI7FpXiSvyzynqzR/HF4vIgpqqF4KeleLTMKn/lZdpHz+lC3tqK3kgt4I3p
7JL2Dvc5Apxn7JKEM7I36qsibp9xQM6qNXSRIbxaO/yRXoXU2948LzlCzNImdcAM
KgoVOJTh9p4Er4NB1khS5zXvKW5futT62kfKe9JzYE0/zqAMUyJBoWFyHjpyAFEj
5oIziJKEIxhkalJwucLp8Zr66dlhi8dXY7gfmQ8dHzEkBJ9K42uPZtuGT5Cu10vV
4RH6w47/wQ6ef2ImEHPwYrAHU9aoL6/tjFaoxQPT/ZiCSH8TWHjBlBbzl1NJUgy4
gJ4oIsx6cVI/Cy+bv0DvYVB42sD5NKBXyE2bWlpskxyOuENoY0H61ziwgqP4C9kI
AOsTQYFKWR/6r22IcBssrUQcqANvl/JS8HrqzeMjgG1HmM1+s+TP4v6lUnsChblK
m8+o/CbXQReePsc8nfn5bTSbQwgqxFQ6HS0I+vjKuUn7N3RC8i6EjtMzllCV7ZT8
mLK7tNGYszPUzmPhH2NHTXOKYWcBjuCWdGV4ENmazhVj+RMhPKEvdKf8/dCbo7Re
beR1hVTJoQ2/pyynDbry6fxdHcWyxFHRJMMri5IRDq585FK9dzuquOWp4xKuwsRg
1diMch5A3dFDgkCa7uu1Ovr3PldpWOTGAF3X9n55HhbZDHy7ARaqjbad+oabAUqv
qGZNWSm9EjxS+CwGdnquSyUIAOtWRf/wXF//veAaL9g1RJgfKNlrwPrrDomjL/vA
wCCEt9x3jNtb0LKgY7/HGXN2GKN9RndfIZ1878petQXaqNX/MHK6N7TzmXDbZ1Ys
Sdg6ajadxzy+QbRzSrp7KWBrpTGEfGV4TtSCUeaIFlXq6VGBR2t4jfY6y+/vM5Fq
gkJxRMg269pxUKJMfnwY2nn4uz01MxbYd0QinrPb8bjg2L2ZitFi1FadJ7YPMOQF
hTA6LfQdJWjTZ1RR+Dt8nnRsu6Vbtn6T/r/Q730h5GtOSxPCLr/khucNrV7M9W+E
kaLZHPBU9lZIDBhRG/xxfeBZodfW8d8I2mzbUjq9zIwNTr8H/jgrWDZ+fDW+rYWb
LpllHw4tf0MYTRAh3OQR2KfDJPvMwWh7nlBjZJsbATAvVatIsuarq/ApSF5/1rzn
FA5E5Iw/Qn3ksKXJ96CUwGMKhGxZ4qnt5U/qfUWojawl2bxuxzTCdCeGLLt1dZFD
LOwAkaN4dkUEIZc5w6ZrXdi/kcYJ7SahQ32AlB2tiIlsOiV6PXYUhc6uii7vQC2P
Zse7z9af1hcA2iSeP452w34WFNmOQcjUCDP/YIF6dBXJ4LGzXqzNgMVJdYVYFO6Q
j/j7RwEPQgzFEKq+WEbcM6HBYxfL655YexuN96Evpg0YNK3IkNIa4U4vbGCmyzj8
RE4GcFuHcokCNgQYAQoAIBYhBOpzi1KkFu92GXYsKrNdqrXiJq48BQJqhGNXAhsM
AAoJELNdqrXiJq48o14P/iuHt1QicsKy/Tppgc3ye14zlxbqttYPVfQLkqMitoJg
Y5TnjAWQVrGT2tnkDpaG28q92JP5rd8qoDgP8+kxlvcXLNWL9229TlGCKNrJwJ3L
ZoGVyarAsKRIxbxJRxeI9B3YfiGEmSJh1xjNa2H4ZZEw5P5WoVvRWZRTDCfaIWyE
WPgE3FOuAHwLn6Pyp0V+s7h7byclz+PhByNnIKZ+zp58eGgBNz/egBlef+b3FvUz
zxh4OOL1o6t/9ypWa8V5Bh34DNZ0Ficzax1Jxlwn/iuVUNALvmrPByyXWdpC3EVE
nlV6sY/3jGs57rOywRajUVtGwgVJ4TX9ZjLVBAQyxPf42UuUd0aXHVIBumTwTE2x
dc7nxVey8nMFBrAq78UA9jP/QEN5myRiy2vztMa3/gkEa8HCKyfu/OGhrnNs4GuY
bhIcS2NQVeNXmGPudqS+QQx/9BndkR4fQehgQqO+Qt1m41MCbPVYh9OWRtrmHG1Q
g1v5c7gdX13YD4u+q8zt3lHXer/e86bhCO2HCZh2M4brWuTzJ6XYvz8RGsPJQ8M3
J7BXibpA9p++bgL+KRa8H1FVUbC1mr0zo7YE96TsEht38zKnKu2fvlRZlmMANDc6
4sLVsARYEqKrNU7uE81yT6P59VrMbN/RFF3KTSRPFo/02dbgCS9hLBykUXzbfm0q
=CTVY
-----END PGP PRIVATE KEY BLOCK-----
